public/images/facebook.svg

<svg width="18" height="18" viewBox="0 0 18 18" xmlns="http://www.w3.org/2000/svg"><title>Shape</title><path d="M16 0H2C.9 0 0 .9 0 2v14c0 1.1.9 2 2 2h7v-7H7V8.525h2v-2.05C9 4.31 10.212 2.79 12.766 2.79l1.803.003v2.605H13.37c-.994 0-1.372.746-1.372 1.438v1.69h2.568L14 11h-2v7h4c1.1 0 2-.9 2-2V2c0-1.1-.9-2-2-2z" fill="#504353" fill-rule="evenodd"/></svg>

<?xml version="1.0" encoding="UTF-8" standalone="no"?>
<svg width="25px" height="25px" viewBox="0 0 25 25" version="1.1" xmlns="http://www.w3.org/2000/svg" xmlns:xlink="http://www.w3.org/1999/xlink" xmlns:sketch="http://www.bohemiancoding.com/sketch/ns">
    <!-- Generator: Sketch 3.4.2 (15855) - http://www.bohemiancoding.com/sketch -->
    <title>facebook</title>
    <desc>Created with Sketch.</desc>
    <defs></defs>
    <g id="Page-1" stroke="none" stroke-width="1" fill="none" fill-rule="evenodd" sketch:type="MSPage">
        <g id="facebook" sketch:type="MSArtboardGroup" fill="#504353">
            <g sketch:type="MSLayerGroup" transform="translate(4.000000, 4.000000)" id="Shape">
                <g sketch:type="MSShapeGroup">
                    <path d="M16,0 L2,0 C0.9,0 0,0.9 0,2 L0,16 C0,17.1 0.9,18 2,18 L9,18 L9,11 L7,11 L7,8.525 L9,8.525 L9,6.475 C9,4.31 10.212,2.79 12.766,2.79 L14.569,2.793 L14.569,5.398 L13.37,5.398 C12.376,5.398 11.998,6.144 11.998,6.836 L11.998,8.526 L14.566,8.526 L14,11 L12,11 L12,18 L16,18 C17.1,18 18,17.1 18,16 L18,2 C18,0.9 17.1,0 16,0 L16,0 Z"></path>
                </g>
            </g>
        </g>
    </g>
</svg>
